X: 490
T:Flee Like a Bird
N: page 198
N: heptatonic
M:4/4
L:1/8
R:Lancashire clog dance
K:G
(3(Bc^c)|"G"(3(dba) (3(gfe) (3(d^cd) e>d|TB2 G2 D2 G>F|"C"E>c A>F "D"D>c A>F|[1"G"G>B e>^c "D"d2:|[2 "G"G2 d2 G2 e>f|:
"Em"g2 {a}g2 "D"f2 {g}f2|"Em"(3(efg) f>e "B"f>^d B2|"G"(3(Bcd) G>B "D"(3(ABc) F>A|[1"G"G>B e>^c "D"d2 e>f:|[2 "G"G2 B2 G2 z2||
